X:104 
T:Lady Gordon (reel) 
F:file ID: cre.5/104lady_g
B:CRE5.157 (Bhantiarna Gordon)
S:Aggie Whyte / Jim Conroy
L:1/8
Q:180
M:C
R:reel
K:D
FEDF A2AB|defd edBd|A2FA ABdf|afge fdd2|
FEDF A2AB|defd edBd|A2FA ABdf|afeg fdd ||
A|d2 (3fed Adfd|A2fd cdec|d2 (3fed Adfd|ABde fddA|
defg a2fd|adfd cdeg|fedB A2FA|ABde faa2||d8|]

%%%

